X: 4046
T: Blarney Pilgrim, The
R: jig
M: 6/8
K: Gmajor
|:D3 DEG|A3 ABc|B3 AGE|GEA GE2|
D3 DEG|A2A ABc|BG2 AGE|GED D3:|
|:d3 dBG|A3 BGE|d3 dBG|AGA B3|
g2e d2G|A3 B2d|dcB AGE|GED D3:|
|:A2D B2D|A2D ABc|BAG AGE|GEA GED|
ADD BDD|ADD ABc|BAG AGE|GED D3:|

